X: 1
T: Pride And Joy
M: 2/4
L: 1/8
R: polka
K: Gmaj
|:G2 cB | cd ef | gf ga | g4 | fe fg | fe dB | cB ce | dc BA |
G2 c2 | cd ef | gf ga | g4 | g2 B2 | B2 AB | c4 | c4 :|
|: E2 A2| Ac BA | E2 A2 | AB cA | BE ^GB | ed cB | A^G AB | cB AG |
E2 A2 | Ac BA | E2 A2 | AB cA | BE e=f | ed cB | A4 | A4 :|
|: G2c2 | e2 g2 | f2 e2 | f4 | f2 e2 | f3 e/f/ | gf ga | g4 |
G2 c2 | e2 g2 | f2 e2 | f4 | g2 B2 | B2 AB | c4 | c4 :|
